resources/svg/major-jobs.svg

<svg xmlns="http://www.w3.org/2000/svg" viewBox="0 0 20 20" fill="currentColor"><path fill-rule="evenodd" d="m5.508 2.466-1.152 2.534h-1.856a1.5 1.5 0 0 0-1.5 1.5v1.882l.503.251a19 19 0 0 0 16.994 0l.503-.251v-1.882a1.5 1.5 0 0 0-1.5-1.5h-1.856l-1.152-2.534a2.5 2.5 0 0 0-2.276-1.466h-4.432a2.5 2.5 0 0 0-2.276 1.466zm2.276.534a.5.5 0 0 0-.455.293l-.776 1.707h6.894l-.776-1.707a.5.5 0 0 0-.455-.293h-4.432z"/><path d="M19 10.613a20.986 20.986 0 0 1-8 2.003v1.384a1 1 0 0 1-2 0v-1.384a20.995 20.995 0 0 1-8-2.003v6.887a1.5 1.5 0 0 0 1.5 1.5h15a1.5 1.5 0 0 0 1.5-1.5v-6.887z"/></svg>

<svg xmlns="http://www.w3.org/2000/svg" viewBox="0 0 20 20" fill="currentColor"><path fill-rule="evenodd" d="M5.508 2.466L4.356 5H2.5A1.5 1.5 0 001 6.5v1.882l.503.251a19 19 0 0016.994 0L19 8.382V6.5A1.5 1.5 0 0017.5 5h-1.856l-1.152-2.534A2.5 2.5 0 0012.216 1H7.784a2.5 2.5 0 00-2.276 1.466zM7.784 3a.5.5 0 00-.455.293L6.553 5h6.894l-.776-1.707A.5.5 0 0012.216 3H7.784z" fill="#5C5F62"/><path d="M19 10.613a20.986 20.986 0 01-8 2.003V14a1 1 0 01-2 0v-1.384c-2.74-.131-5.46-.798-8-2.003V17.5A1.5 1.5 0 002.5 19h15a1.5 1.5 0 001.5-1.5v-6.887z" fill="#5C5F62"/></svg>
